X:121
T:The Miller of Drone
S:Andrew Small of Carrickfergus's music book, NLS MS 21738 (1835)
M:4/4
L:1/8
Q:1/4=120
K:D
(f/e/)|(d<B) Bd A>BAF|D<D Df feef      |dB Bd A>BAF |G>BA>c d2 d
(f/e/)| dBBd    A>BAF|D<D gf fe e(f/g/)|aefc  d>AB>F|A<A AB d2 d||
b|affd' aa (b/a/).g/.f/|af fd' b3(c'/d'/)|   affd'              aa      (b/a/).g/.f/|gefd ({d}B2)B
b|affd' aa (b/a/).g/.f/|af fd' b3 c'     |(3(d'c'b) (3(abc') (3(d'ag) (3(fed)       |gefd     B2 B|]

